src/main/webapp/dist/images/menu_hamb.svg

<?xml version="1.0" encoding="UTF-8" standalone="no"?>
<svg
   xmlns:dc="http://purl.org/dc/elements/1.1/"
   xmlns:cc="http://creativecommons.org/ns#"
   xmlns:rdf="http://www.w3.org/1999/02/22-rdf-syntax-ns#"
   xmlns:svg="http://www.w3.org/2000/svg"
   xmlns="http://www.w3.org/2000/svg"
   xmlns:sodipodi="http://sodipodi.sourceforge.net/DTD/sodipodi-0.dtd"
   xmlns:inkscape="http://www.inkscape.org/namespaces/inkscape"
   height="24px"
   version="1.1"
   viewBox="0 0 24 24"
   width="24px"
   id="svg2"
   inkscape:version="0.91 r13725"
   sodipodi:docname="menu_hamb.svg">
  <metadata
     id="metadata16">
    <rdf:RDF>
      <cc:Work
         rdf:about="">
        <dc:format>image/svg+xml</dc:format>
        <dc:type
           rdf:resource="http://purl.org/dc/dcmitype/StillImage" />
        <dc:title></dc:title>
      </cc:Work>
    </rdf:RDF>
  </metadata>
  <sodipodi:namedview
     pagecolor="#ffffff"
     bordercolor="#666666"
     borderopacity="1"
     objecttolerance="10"
     gridtolerance="10"
     guidetolerance="10"
     inkscape:pageopacity="0"
     inkscape:pageshadow="2"
     inkscape:window-width="1309"
     inkscape:window-height="747"
     id="namedview14"
     showgrid="false"
     inkscape:zoom="9.8333333"
     inkscape:cx="2.1864407"
     inkscape:cy="12"
     inkscape:window-x="57"
     inkscape:window-y="21"
     inkscape:window-maximized="1"
     inkscape:current-layer="svg2" />
  <desc
     id="desc6" />
  <defs
     id="defs8" />
  <g
     fill="none"
     fill-rule="evenodd"
     id="miu"
     stroke="none"
     stroke-width="1"
     style="fill:#ffffff">
    <g
       id="Artboard-1"
       transform="translate(-395.000000, -479.000000)"
       style="fill:#ffffff">
      <g
         id="slice"
         transform="translate(215.000000, 119.000000)"
         style="fill:#ffffff" />
      <path
         d="M396.500836,485 C396.224232,485 396,485.214035 396,485.504684 L396,486.495316 C396,486.774045 396.217742,487 396.500836,487 L417.499164,487 C417.775768,487 418,486.785965 418,486.495316 L418,485.504684 C418,485.225955 417.782258,485 417.499164,485 L396.500836,485 Z M396.500836,490 C396.224232,490 396,490.214035 396,490.504684 L396,491.495316 C396,491.774045 396.217742,492 396.500836,492 L417.499164,492 C417.775768,492 418,491.785965 418,491.495316 L418,490.504684 C418,490.225955 417.782258,490 417.499164,490 L396.500836,490 Z M396.500836,495 C396.224232,495 396,495.214035 396,495.504684 L396,496.495316 C396,496.774045 396.217742,497 396.500836,497 L417.499164,497 C417.775768,497 418,496.785965 418,496.495316 L418,495.504684 C418,495.225955 417.782258,495 417.499164,495 L396.500836,495 Z"
         fill="#000000"
         id="editor-list-view-hambuger-menu-glyph"
         style="fill:#ffffff" />
    </g>
  </g>
</svg>

<?xml version="1.0" encoding="UTF-8" standalone="no"?>
<svg
   xmlns:dc="http://purl.org/dc/elements/1.1/"
   xmlns:cc="http://creativecommons.org/ns#"
   xmlns:rdf="http://www.w3.org/1999/02/22-rdf-syntax-ns#"
   xmlns:svg="http://www.w3.org/2000/svg"
   xmlns="http://www.w3.org/2000/svg"
   xmlns:sodipodi="http://sodipodi.sourceforge.net/DTD/sodipodi-0.dtd"
   xmlns:inkscape="http://www.inkscape.org/namespaces/inkscape"
   height="24px"
   version="1.1"
   viewBox="0 0 24 24"
   width="24px"
   id="svg2"
   inkscape:version="0.91 r13725"
   sodipodi:docname="menu_hamb.svg">
  <metadata
     id="metadata16">
    <rdf:RDF>
      <cc:Work
         rdf:about="">
        <dc:format>image/svg+xml</dc:format>
        <dc:type
           rdf:resource="http://purl.org/dc/dcmitype/StillImage" />
        <dc:title />
      </cc:Work>
    </rdf:RDF>
  </metadata>
  <sodipodi:namedview
     pagecolor="#ffffff"
     bordercolor="#666666"
     borderopacity="1"
     objecttolerance="10"
     gridtolerance="10"
     guidetolerance="10"
     inkscape:pageopacity="0"
     inkscape:pageshadow="2"
     inkscape:window-width="1309"
     inkscape:window-height="747"
     id="namedview14"
     showgrid="false"
     inkscape:zoom="9.8333333"
     inkscape:cx="-1.9073355"
     inkscape:cy="20.135593"
     inkscape:window-x="57"
     inkscape:window-y="21"
     inkscape:window-maximized="1"
     inkscape:current-layer="svg2" />
  <desc
     id="desc6" />
  <defs
     id="defs8" />
  <g
     id="miu"
     style="fill:#ffffff;fill-rule:evenodd;stroke:none;stroke-width:1"
     transform="matrix(0.5,0,0,0.5,6,6)">
    <g
       id="Artboard-1"
       transform="translate(-395,-479)"
       style="fill:#ffffff">
      <g
         id="slice"
         transform="translate(215,119)"
         style="fill:#ffffff" />
      <path
         d="M 396.50084,485 C 396.22423,485 396,485.21404 396,485.50468 l 0,0.99064 c 0,0.27872 0.21774,0.50468 0.50084,0.50468 l 20.99832,0 C 417.77577,487 418,486.78596 418,486.49532 l 0,-0.99064 C 418,485.22595 417.78226,485 417.49916,485 l -20.99832,0 z m 0,5 C 396.22423,490 396,490.21404 396,490.50468 l 0,0.99064 c 0,0.27872 0.21774,0.50468 0.50084,0.50468 l 20.99832,0 C 417.77577,492 418,491.78596 418,491.49532 l 0,-0.99064 C 418,490.22595 417.78226,490 417.49916,490 l -20.99832,0 z m 0,5 C 396.22423,495 396,495.21404 396,495.50468 l 0,0.99064 c 0,0.27872 0.21774,0.50468 0.50084,0.50468 l 20.99832,0 C 417.77577,497 418,496.78596 418,496.49532 l 0,-0.99064 C 418,495.22595 417.78226,495 417.49916,495 l -20.99832,0 z"
         id="editor-list-view-hambuger-menu-glyph"
         style="fill:#ffffff"
         inkscape:connector-curvature="0" />
    </g>
  </g>
  <g
     inkscape:groupmode="layer"
     id="layer1"
     inkscape:label="Layer 1" />
</svg>
